icons/photos-galleries.svg

<svg
  xmlns="http://www.w3.org/2000/svg"
  viewBox="0 0 500 500"
  width="500"
  height="500"
  fill="#ffffff"
>
  <path d="M437 118.9a75.26 75.26 0 0 0-54.16-55.46 63 63 0 0 0-62.71-58.36H67.93A63 63 0 0 0 5 68v252.2a63 63 0 0 0 58.52 62.7A75.26 75.26 0 0 0 119 437a75.19 75.19 0 0 0 73.06 58h227.83A75.2 75.2 0 0 0 495 419.8V192a75.19 75.19 0 0 0-58-73.1zM320.13 344.36h-2.51l-82.57-82.57 48.19-48.18 61 61v45.56a24.18 24.18 0 0 1-24.11 24.19zM67.93 43.86h252.2A24.18 24.18 0 0 1 344.28 68v151.8l-61-61-75.61 75.61-103.94-103.94-60 60V68a24.18 24.18 0 0 1 24.2-24.14zM43.77 320.21v-74.95l60-59.95 159 159.05H67.93a24.18 24.18 0 0 1-24.16-24.15zm61.57 62.93h214.79a63 63 0 0 0 62.92-62.93v-215a36.32 36.32 0 0 1 17.21 30.84v227.83a36.38 36.38 0 0 1-36.34 36.33H136.1a36.32 36.32 0 0 1-30.76-17.07zm350.89 36.66a36.38 36.38 0 0 1-36.34 36.34H192.06a36.29 36.29 0 0 1-30.8-17.14h202.66A75.2 75.2 0 0 0 439 363.88V161.15A36.32 36.32 0 0 1 456.23 192z" />
  <circle cx="224.71" cy="90.7" r="20.1" />
</svg>

<svg xmlns="http://www.w3.org/2000/svg" viewBox="0 0 500 500">
  <g id="photos-galleries">
    <path id="outline" d="M437,118.9a75.26,75.26,0,0,0-54.16-55.46A63,63,0,0,0,320.13,5.08H67.93A63,63,0,0,0,5,68v252.2a63,63,0,0,0,58.52,62.7A75.26,75.26,0,0,0,119,437a75.19,75.19,0,0,0,73.06,58H419.89A75.2,75.2,0,0,0,495,419.8V192A75.19,75.19,0,0,0,437,118.9ZM320.13,344.36h-2.51l-82.57-82.57,48.19-48.18,61,61v45.56A24.18,24.18,0,0,1,320.13,344.36ZM67.93,43.86h252.2A24.18,24.18,0,0,1,344.28,68v151.8l-61-61-75.61,75.61L103.73,130.47l-60,60V68A24.18,24.18,0,0,1,67.93,43.86ZM43.77,320.21V245.26l60-59.95,159,159.05H67.93A24.18,24.18,0,0,1,43.77,320.21Zm61.57,62.93H320.13a63,63,0,0,0,62.92-62.93v-215a36.32,36.32,0,0,1,17.21,30.84V363.88a36.38,36.38,0,0,1-36.34,36.33H136.1A36.32,36.32,0,0,1,105.34,383.14ZM456.23,419.8a36.38,36.38,0,0,1-36.34,36.34H192.06A36.29,36.29,0,0,1,161.26,439H363.92A75.2,75.2,0,0,0,439,363.88V161.15A36.32,36.32,0,0,1,456.23,192Z"/>
    <circle id="moon" cx="224.71" cy="90.7" r="20.1"/>
  </g>
</svg>
